static/img/patterns/vision/line.svg

<?xml version="1.0" encoding="UTF-8"?>
<svg width="77px" height="149px" viewBox="0 0 77 149" version="1.1" xmlns="http://www.w3.org/2000/svg" xmlns:xlink="http://www.w3.org/1999/xlink">
    <!-- Generator: Sketch 49.1 (51147) - http://www.bohemiancoding.com/sketch -->
    <title>line</title>
    <desc>Created with Sketch.</desc>
    <defs>
        <linearGradient x1="0%" y1="49.9924863%" x2="100.035883%" y2="49.9924863%" id="linearGradient-1">
            <stop stop-color="#6E718F" offset="0%"></stop>
            <stop stop-color="#6E718F" offset="99.44%"></stop>
        </linearGradient>
        <linearGradient x1="0.798553993%" y1="49.49%" x2="101.156911%" y2="49.49%" id="linearGradient-2">
            <stop stop-color="#6E718F" offset="0%"></stop>
            <stop stop-color="#6E718F" offset="99.44%"></stop>
        </linearGradient>
        <linearGradient x1="47.2551651%" y1="33.906896%" x2="72.4247753%" y2="81.2221136%" id="linearGradient-3">
            <stop stop-color="#27283A" offset="0%"></stop>
            <stop stop-color="#27283A" stop-opacity="0" offset="100%"></stop>
        </linearGradient>
    </defs>
    <g id="Page-1" stroke="none" stroke-width="1" fill="none" fill-rule="evenodd" opacity="0.147814764">
        <g id="Landing-page" transform="translate(-432.000000, -1196.000000)">
            <g id="background" transform="translate(-1054.000000, -474.000000)">
                <g id="graphics" transform="translate(990.000000, 1434.000000)">
                    <g id="line" transform="translate(496.000000, 236.000000)">
                        <path d="M52.8754717,20 C47.8745283,20 43.809434,24.0752273 43.809434,29.0886364 C43.809434,32.6947727 45.9150943,35.8318182 48.9858491,37.2977273 L1.55,146.126818 L1.55,146.156136 C1.46226415,146.126818 1.40377358,146.126818 1.31603774,146.126818 C0.58490566,146.126818 0,146.713182 0,147.446136 C0,148.179091 0.58490566,148.765455 1.31603774,148.765455 C2.04716981,148.765455 2.63207547,148.179091 2.63207547,147.446136 C2.63207547,147.006364 2.42735849,146.625227 2.10566038,146.390682 L49.5122642,37.5615909 C50.5650943,37.9720455 51.6764151,38.2065909 52.8754717,38.2065909 C57.8764151,38.2065909 61.9415094,34.1313636 61.9415094,29.1179545 C61.9415094,24.1045455 57.9056604,20 52.8754717,20 Z M52.8754717,37.6202273 C48.1962264,37.6202273 44.3943396,33.8088636 44.3943396,29.1179545 C44.3943396,24.4270455 48.1962264,20.6156818 52.8754717,20.6156818 C57.554717,20.6156818 61.3566038,24.4270455 61.3566038,29.1179545 C61.3566038,33.8088636 57.554717,37.6202273 52.8754717,37.6202273 Z" id="Shape" fill="url(#linearGradient-1)" fill-rule="nonzero"></path>
                        <path d="M52.8754717,27.7986364 C52.1443396,27.7986364 51.559434,28.385 51.559434,29.1179545 C51.559434,29.5577273 51.7641509,29.9388636 52.0858491,30.1734091 L52.0566038,30.2027273 L52.5830189,30.4372727 L52.6122642,30.4079545 C52.7,30.4079545 52.7584906,30.4372727 52.8462264,30.4372727 C53.5773585,30.4372727 54.1622642,29.8509091 54.1622642,29.1179545 C54.1915094,28.385 53.6066038,27.7986364 52.8754717,27.7986364 Z" id="Shape" fill="url(#linearGradient-2)" fill-rule="nonzero"></path>
                        <polygon id="Rectangle-8" fill="url(#linearGradient-3)" points="30.3009892 0.489504136 73.4200896 3 77.4831744 73.8585041 23.8071197 61.0771872"></polygon>
                    </g>
                </g>
            </g>
        </g>
    </g>
</svg>

<svg width="77" height="149" xmlns="http://www.w3.org/2000/svg"><defs><linearGradient x1="0%" y1="49.992%" x2="100.036%" y2="49.992%" id="a"><stop stop-color="#6E718F" offset="0%"/><stop stop-color="#6E718F" offset="99.44%"/></linearGradient><linearGradient x1=".799%" y1="49.49%" x2="101.157%" y2="49.49%" id="b"><stop stop-color="#6E718F" offset="0%"/><stop stop-color="#6E718F" offset="99.44%"/></linearGradient><linearGradient x1="47.255%" y1="33.907%" x2="72.425%" y2="81.222%" id="c"><stop stop-color="#27283A" offset="0%"/><stop stop-color="#27283A" stop-opacity="0" offset="100%"/></linearGradient></defs><g fill="none" fill-rule="evenodd" opacity=".148"><path d="M52.875 20c-5 0-9.066 4.075-9.066 9.089a9.096 9.096 0 0 0 5.177 8.209L1.55 146.127v.03c-.088-.03-.146-.03-.234-.03-.731 0-1.316.586-1.316 1.32 0 .732.585 1.318 1.316 1.318.731 0 1.316-.586 1.316-1.319 0-.44-.205-.82-.526-1.055L49.512 37.56a9.156 9.156 0 0 0 3.363.646c5.001 0 9.067-4.076 9.067-9.089 0-5.013-4.036-9.118-9.067-9.118zm0 17.62c-4.679 0-8.48-3.811-8.48-8.502 0-4.691 3.801-8.502 8.48-8.502 4.68 0 8.482 3.811 8.482 8.502 0 4.69-3.802 8.502-8.482 8.502z" fill="url(#a)" fill-rule="nonzero"/><path d="M52.875 27.799c-.73 0-1.316.586-1.316 1.319 0 .44.205.82.527 1.055l-.03.03.527.234.03-.029c.087 0 .145.03.233.03.731 0 1.316-.587 1.316-1.32a1.27 1.27 0 0 0-1.287-1.32z" fill="url(#b)" fill-rule="nonzero"/><path fill="url(#c)" d="M30.301.49L73.421 3l4.062 70.859-53.676-12.782z"/></g></svg>
